X: 10112
T: The HONEY MOON.     a Reel.
R: reel
B: "Edinburgh Repository of Music" v.1 p.11 #2
F: http://digital.nls.uk/special-collections-of-printed-music/pageturner.cfm?id=87776133
Z: 2015 John Chambers <jc:trillian.mit.edu>
N: The rhythms at the strains' ends aren't correct; not fixed.
M: C|
L: 1/8
K: D
A2 |\
(Ad).d.d dffa | gfed ceA2 |\
(Ad).d.d dffa | gfge d2d2 :|\
|:\
d>AA2 Bdd2 | AFED CEE2 |\
dAA2 Bcde | fgef d2d2 :|

%%sep 2 1 500
%%sep 1 1 500

